X:3396
T:Omvända vallåtspolskan
R:Polska
O:Orsa, Dalarna
M:3/4
L:1/8
K:G
|: v(A/B/^c/d/) ef g>e |ag a<b a>g  |ed- (3def g>e  | (ag) (e<d) (B3/ (3c/B/A/|
(3B2)(e2f2) g>e |ag a<b a>g |ed- (3def g>e | (ag) e4 :| z2 ve4 |
|: z>uc- (3Bcd e2- | (3e-e^G- AB- c>d- | e>d- c(B d)>(c | A)G E2 (vE2 |
vB)>(c (3B)cd e2- | (3e-e(^G A)(B c)>d | (3e2(e2d2)  c>B  | dc A4 :|
(:musicend:)
(:music:)
